X: 332
T: 333. Es woll' uns Gott gen\"adig sein
N: Derived from chor333.krn
C: Johann Sebastian Bach
%%abc-version 2.0
%%abcx-abcm2ps-target-version 5.9.1 (29 Sep 2008)
%%abc-creator hum2abc beta
%%abcx-conversion-date 2019/03/11 17:28:19
%%abc-edited-by Craig Stuart Sapp
%%humdrum-veritas 242265397
%%humdrum-veritas-data 3246655684
%%
%%barnumbers 0
L: 1/4
M: C
%%staves [1 2 3 4]
V: 1 clef=treble
V: 2 clef=treble
V: 3 clef=treble-8
V: 4 clef=bass
K: D
[V:1] c [I:setbarnb 1]]|:  
[V:2] F ]|:  
[V:3] ^A ]|:  
[V:4] F, ]|:  
[V:1] dcBc/d/ | 
[V:2] FF/E/DA | 
[V:3] B^AB=A/B/ | 
[V:4] B,,F,G,F, | 
[V:1] efed | 
[V:2] GF/^G/AB | 
[V:3] cde/f/^g | 
[V:4] E,D,C,B,, | 
[V:1] !fermata!c2ze | 
[V:2] !fermata!E2xF | 
[V:3] !fermata!c2xc | 
[V:4] !fermata!A,,2z^A,, | 
[V:1] dcdB | 
[V:2] FEFD/E/ | 
[V:3] B/=A/GAB/c/ | 
[V:4] B,,E,D,G, | 
[V:1] AF/G/AG |[1 
[V:2] F3E | 
[V:3] d3c | 
[V:4] F,B,A,A,, | 
[V:1] !fermata!F3c :|][2 
[V:2] !fermata!D3E :|]  
[V:3] !fermata!A3^A :|]  
[V:4] !fermata!D,3C, :|]  
[V:1] !fermata!F3A || 
[V:2] !fermata!D3F ||  
[V:3] !fermata!A3A ||  
[V:4] !fermata!D,3D,- ||  
[V:1] GFEF | 
[V:2] EDD/C/D | 
[V:3] AAAA | 
[V:4] D,/C,/D,A,,D,/E,/ | 
[V:1] DE!fermata!Fc | 
[V:2] DB,/C/!fermata!DE | 
[V:3] AG!fermata!A^A | 
[V:4] F,E,!fermata!D,C, | 
[V:1] dc/B/AB/c/ | 
[V:2] FGFF | 
[V:3] B/=A/Gd/e/f | 
[V:4] B,,E,F,/E,/ D,/C,/ | 
[V:1] d3/e/!fermata!cf | 
[V:2] F/^G//A//G!fermata!AA | 
[V:3] fe!fermata!ed | 
[V:4] B,,E,!fermata!A,,D, | 
[V:1] e/d/ c/d/eB | 
[V:2] AAAG/F/ | 
[V:3] c/f/ e/d/cB | 
[V:4] A,A,,/B,,/ C,/D,/ E,/D,/ | 
[V:1] AG!fermata!FE | 
[V:2] E/D/E!fermata!DC | 
[V:3] EA!fermata!AA | 
[V:4] C,/B,,/ C,/A,,/!fermata!D,A,/^G,/ | 
[V:1] ABc/d/e | 
[V:2] C/A/ ^G/F/ E/F/=G | 
[V:3] Ae/d/ e/d/c- | 
[V:4] F,E,/F,/=G,^A,, | 
[V:1] dc!fermata!Bd | 
[V:2] F/B^A/!fermata!FB- | 
[V:3] c/B/ g/f//e//!fermata!de | 
[V:4] B,,/D,/ E,/F,/!fermata!B,,^G,, | 
[V:1] cBAF/G/ | 
[V:2] B/=A/- A/=G/- G/F//E//D- | 
[V:3] ede/A/A | 
[V:4] A,,B,,C,D,/E,/ | 
[V:1] A2G2 | 
[V:2] D/E/FE2 | 
[V:3] d3c | 
[V:4] F,/G,/A,2A,, | 
[V:1] !fermata!F3 |]  
[V:2] !fermata!D3 |]  
[V:3] !fermata!A3 |]  
[V:4] !fermata!D,3 |]  



